X: 4
T:Juliann Johnson
T:Julie Ann Johnson
C:Traditional (Arr. Pete Showman & Portland Collection I)
R:reel
M:C|
L:1/8
K:D
|: "D"fafe dfed | Bd2e- d2f-g | a2(a2 a)a-b2 | "A"a8 |
   "D"fafe dfed | Bd2e- d2e2 | f2e2 "G"dA-B2 |\
  [1 "A"A8 :|[2 "D"A6 A2 ||
|: "G"vB-ABc- d3A | B-ABc- d3A | vBABc dA-B2 | "D"A4 A2A2 |
    "G"B-ABc- d3A | B-ABc- d2e2 | "D"f2e2 "G"dA-B2 |\
  [1 "D"A4 A2A2 :|[2 "A"A4 A4 |]
N:Portland Collection, pg 116 - adapted by Peter Ostapenko.
N:SDFH CB: modified ending chords.
N:Last update - PO 6/5/2007.
N:D Major
